X:55
T:Christy Barry's Set #1
M:6/8
L:1/8
K:G
|:"G"G2D|"G"[DG][DG][DG] BAG|"D"AA>B d2 e|"G"ged BGG|"D"A{B}A{G}A "Em"BGE|!
"G"DGG BGG|"D"AA>B d2 e|"G"ged BGG|"D"AGF:|!
|:"G"GBd|"G"ggg {a}gfg|"D"aa>g "G"d2 e|"G"ged BGG|"D"A{B}A{G}A "Em"BGE|!
"G"DGG BGG|"D"AA>B d2 e|"G"ged BGG|"D"AGF:|"Fine""G"G3||!


